src/pos-icons/vector-polyline-remove.svg

<svg height="24" viewBox="0 0 24 24" width="24" xmlns="http://www.w3.org/2000/svg"><path d="m21.1 15.5-2.1 2.1-2.1-2.1-1.4 1.4 2.1 2.1-2.1 2.1 1.4 1.4 2.1-2.1 2.1 2.1 1.4-1.4-2.1-2.1 2.1-2.1zm-5.1-10.5v4.6l-5.4 5.4h-1.5l-2-6h.9v-6h-6v6h3l2 6h-1v6h6v-4.6l5.4-5.4h4.6v-6zm-10 2h-2v-2h2zm4 12h-2v-2h2zm10-10h-2v-2h2z"/></svg>

<?xml version="1.0" encoding="UTF-8"?><!DOCTYPE svg PUBLIC "-//W3C//DTD SVG 1.1//EN" "http://www.w3.org/Graphics/SVG/1.1/DTD/svg11.dtd"><svg xmlns="http://www.w3.org/2000/svg" xmlns:xlink="http://www.w3.org/1999/xlink" version="1.1" id="mdi-vector-polyline-remove" width="24" height="24" viewBox="0 0 24 24"><path d="M21.1 15.5L19 17.6L16.9 15.5L15.5 16.9L17.6 19L15.5 21.1L16.9 22.5L19 20.4L21.1 22.5L22.5 21.1L20.4 19L22.5 16.9L21.1 15.5M16 5V9.6L10.6 15H9.1L7.1 9H8V3H2V9H5L7 15H6V21H12V16.4L17.4 11H22V5H16M6 7H4V5H6V7M10 19H8V17H10V19M20 9H18V7H20V9" /></svg>
